svg/emoji_u1f640.svg

<?xml version="1.0" encoding="UTF-8" standalone="no"?>
<svg
   xmlns:dc="http://purl.org/dc/elements/1.1/"
   xmlns:cc="http://creativecommons.org/ns#"
   xmlns:rdf="http://www.w3.org/1999/02/22-rdf-syntax-ns#"
   xmlns:svg="http://www.w3.org/2000/svg"
   xmlns="http://www.w3.org/2000/svg"
   xmlns:sodipodi="http://sodipodi.sourceforge.net/DTD/sodipodi-0.dtd"
   xmlns:inkscape="http://www.inkscape.org/namespaces/inkscape"
   width="128"
   height="128"
   style="enable-background:new 0 0 128 128;"
   version="1.1"
   id="svg10"
   sodipodi:docname="emoji_u1f640.svg"
   inkscape:version="0.92.3 (2405546, 2018-03-11)">
  <metadata
     id="metadata16">
    <rdf:RDF>
      <cc:Work
         rdf:about="">
        <dc:format>image/svg+xml</dc:format>
        <dc:type
           rdf:resource="http://purl.org/dc/dcmitype/StillImage" />
      </cc:Work>
    </rdf:RDF>
  </metadata>
  <defs
     id="defs14" />
  <sodipodi:namedview
     pagecolor="#ffffff"
     bordercolor="#666666"
     inkscape:document-rotation="0"
     borderopacity="1"
     objecttolerance="10"
     gridtolerance="10"
     guidetolerance="10"
     inkscape:pageopacity="0"
     inkscape:pageshadow="2"
     inkscape:window-width="1920"
     inkscape:window-height="1046"
     id="namedview12"
     showgrid="false"
     inkscape:zoom="3.8504174"
     inkscape:cx="-4.0955258"
     inkscape:cy="54.5"
     inkscape:window-x="-11"
     inkscape:window-y="-11"
     inkscape:window-maximized="1"
     inkscape:current-layer="svg10" />
  <path
     inkscape:connector-curvature="0"
     id="path6"
     style="fill:#ebebeb;fill-opacity:1"
     d="m 125.09,92.58 -9.49,-1.71 c 0.34,-1.72 0.55,-3.48 0.67,-5.26 l 8.95,-1.33 c 1.17,-0.17 1.97,-1.26 1.8,-2.42 -0.17,-1.17 -1.25,-1.95 -2.42,-1.8 l -8.22,1.22 c -0.02,-1 -0.05,-2 -0.11,-3 -0.23,-3.35 -0.93,-6.73 -2.04,-10.03 3.26,-9.41 11.48,-35.6 4.76,-42.81 -5.33,-5.72 -24.06,6.53 -30.23,11.06 -1.35,0.99 -2.59,1.89 -3.73,2.71 C 78.31,36.91 70.88,35.72 63.51,35.73 55.93,35.72 48.26,36.96 41.39,39.4 40.01,38.58 38.5,37.68 36.81,36.64 30.27,32.66 10.55,22.07 5.73,28.23 c -5.55,7.08 2.67,28.85 7.24,39.51 -1.21,3.47 -1.98,7.02 -2.22,10.55 -0.06,0.95 -0.09,1.9 -0.12,2.85 L 3.42,80.07 C 2.26,79.92 1.17,80.7 1,81.87 c -0.17,1.17 0.63,2.25 1.8,2.42 l 7.92,1.18 c 0.12,1.88 0.35,3.75 0.71,5.58 l -8.5,1.53 C 1.77,92.79 1,93.9 1.21,95.06 c 0.19,1.03 1.08,1.75 2.09,1.75 0.13,0 0.26,-0.01 0.38,-0.03 l 8.83,-1.59 c 0.66,1.97 1.51,3.88 2.58,5.71 l -8.45,2.68 c -1.13,0.35 -1.75,1.55 -1.39,2.68 0.29,0.91 1.13,1.49 2.03,1.49 0.21,0 0.43,-0.03 0.64,-0.1 l 9.69,-3.08 c 1.56,1.92 3.4,3.73 5.62,5.39 6.05,4.51 13.58,7.57 21.33,9.23 2.95,0.63 10.57,2.1 18.56,2.1 7.99,0 16.35,-1.47 19.3,-2.1 7.75,-1.66 15.28,-4.71 21.33,-9.23 2.31,-1.73 4.23,-3.62 5.82,-5.65 l 10.5,3.34 c 0.21,0.07 0.43,0.1 0.65,0.1 0.91,0 1.74,-0.58 2.03,-1.49 0.36,-1.12 -0.27,-2.33 -1.39,-2.68 l -9.31,-2.96 c 1.02,-1.8 1.84,-3.68 2.47,-5.61 l 9.8,1.77 c 0.13,0.02 0.25,0.03 0.38,0.03 1.01,0 1.91,-0.72 2.1,-1.75 0.22,-1.16 -0.55,-2.26 -1.71,-2.48 z"
     sodipodi:nodetypes="ccccccccccccccccccccscccccscccccsccccsccccscccccscc" />
  <path
     style="fill:#2f2f2f;stroke-width:0.99994832"
     d="M 81.390625 96.019531 C 75.450625 96.019531 73.119922 100.5607 68.169922 101.2207 C 63.199922 101.7307 59.869609 97.850234 54.099609 99.240234 C 48.829609 100.52023 46.990156 105.65906 48.160156 109.03906 C 49.400156 112.66906 52.740156 114.91023 58.410156 114.24023 C 63.880156 113.60023 63.839531 111.19953 69.269531 110.51953 C 74.709531 109.90953 75.219219 112.25938 80.699219 111.60938 C 86.369219 110.93937 89.100938 107.98016 89.460938 104.16016 C 89.810938 100.60016 86.810625 96.039531 81.390625 96.019531 z "
     id="ellipse2" />
  <path
     style="fill:#2f2f2f;stroke-width:0.99996138"
     d="M 48.695312 72.275391 C 47.699727 72.341152 46.870469 73.095391 46.730469 74.119141 C 46.720469 74.169141 46.069453 78.669219 41.189453 80.699219 C 36.399453 82.689219 32.759141 80.080469 32.619141 79.980469 C 31.679141 79.270469 30.340859 79.450625 29.630859 80.390625 C 28.910859 81.330625 29.089297 82.660859 30.029297 83.380859 C 30.199297 83.510859 33.170547 85.720703 37.560547 85.720703 C 39.150547 85.720703 40.930312 85.430625 42.820312 84.640625 C 49.930312 81.680625 50.910938 74.969453 50.960938 74.689453 C 51.110938 73.519453 50.300859 72.439063 49.130859 72.289062 C 48.983359 72.269063 48.837539 72.265996 48.695312 72.275391 z M 76.925781 72.353516 C 76.78502 72.35457 76.6425 72.370391 76.5 72.400391 C 75.35 72.640391 74.619375 73.779687 74.859375 74.929688 C 74.919375 75.209687 76.410469 81.830469 83.730469 84.230469 C 85.280469 84.740469 86.730547 84.939453 88.060547 84.939453 C 93.000547 84.939453 96.220625 82.140234 96.390625 81.990234 C 97.270625 81.210234 97.350313 79.860469 96.570312 78.980469 C 95.780312 78.090469 94.440547 78.020781 93.560547 78.800781 C 93.520547 78.840781 90.070547 81.829688 85.060547 80.179688 C 80.130547 78.559688 79.079297 74.219531 79.029297 74.019531 C 78.810547 73.022031 77.911113 72.346133 76.925781 72.353516 z "
     id="rect4" />
  <path
     style="fill:#1a1a1a;fill-opacity:1"
     d="M 10.738281 26.347656 C 8.5518581 26.33665 6.7848437 26.882969 5.7304688 28.230469 C 0.1804687 35.310469 8.4007032 57.080234 12.970703 67.740234 C 12.270214 69.749074 11.735756 71.785064 11.347656 73.828125 C 13.487528 74.382145 15.702243 74.759194 17.970703 74.941406 C 41.660014 76.844226 47.19392 67.891364 50.482422 41.664062 C 50.683699 40.058789 50.729396 38.48128 50.646484 36.933594 C 47.461726 37.535308 44.34967 38.349434 41.390625 39.400391 C 40.010625 38.580391 38.500547 37.680625 36.810547 36.640625 C 31.701172 33.53125 18.546936 26.386963 10.738281 26.347656 z M 12.230469 31.068359 C 16.053448 31.002528 22.815748 34.354032 34.048828 43.410156 C 34.048828 43.410156 21.713794 52.305152 15.736328 62.224609 C 15.736328 62.224609 0.76153095 31.265854 12.230469 31.068359 z "
     id="path826" />
  <path
     style="vector-effect:none;fill:#1a1a1a;fill-opacity:1;stroke:none;stroke-width:0.77999997;stroke-linejoin:round"
     d="M 112.50586 51.050781 C 110.89795 55.849962 109.28711 59.59375 109.28711 59.59375 C 107.23576 56.642338 104.53387 53.835402 101.82227 51.384766 C 90.360236 53.486015 90.879263 59.21498 85.171875 73.220703 C 84.458774 74.970627 84.1415 76.682607 84.158203 78.333984 C 84.558023 78.543265 84.993449 78.735808 85.482422 78.896484 C 87.669932 79.616922 89.435998 79.321468 90.710938 78.855469 C 91.348405 78.622469 91.85463 78.343203 92.193359 78.126953 C 92.362724 78.018828 92.490133 77.92639 92.570312 77.865234 C 92.60833 77.836239 92.63493 77.817396 92.650391 77.804688 C 92.649485 77.805687 92.655109 77.799894 92.654297 77.800781 C 92.661752 77.794626 92.66501 77.790198 92.664062 77.791016 L 92.666016 77.791016 C 94.084875 76.53339 96.310265 76.653436 97.580078 78.083984 L 97.580078 78.085938 C 98.844872 79.512882 98.713413 81.734045 97.285156 83 L 97.285156 83.001953 L 97.283203 83.001953 C 97.0194 83.23472 93.510526 86.289062 88.060547 86.289062 C 87.730042 86.289062 87.390536 86.27372 87.046875 86.25 C 91.032013 91.465236 98.695552 95.115933 107.23242 95.732422 C 112.12078 96.085434 116.6453 94.521303 120.30859 91.71875 L 115.59961 90.869141 C 115.93961 89.149141 116.14953 87.389375 116.26953 85.609375 L 125.2207 84.279297 C 126.3907 84.109297 127.18953 83.019375 127.01953 81.859375 C 126.84953 80.689375 125.76961 79.910547 124.59961 80.060547 L 116.38086 81.279297 C 116.36086 80.279297 116.32953 79.279297 116.26953 78.279297 C 116.03953 74.929297 115.34047 71.55 114.23047 68.25 C 115.38286 64.923605 117.1511 59.489244 118.66406 53.548828 C 116.77698 52.373612 114.70502 51.515701 112.50586 51.050781 z "
     id="path832" />
  <path
     style="vector-effect:none;fill:#1a1a1a;fill-opacity:1;stroke:none;stroke-width:0.77999991;stroke-linejoin:round"
     d="M 30.585938 85.316406 C 29.020634 85.317275 27.419027 85.392484 25.773438 85.583984 C 20.489256 86.198914 15.494399 87.373289 11.109375 89.052734 C 11.206292 89.721337 11.299926 90.391168 11.429688 91.050781 L 4.4394531 92.308594 C 3.2634958 93.036862 2.1722863 93.8165 1.1777344 94.646484 C 1.175754 94.782663 1.1857591 94.921466 1.2109375 95.060547 C 1.4009375 96.090547 2.2907813 96.810547 3.3007812 96.810547 C 3.4307814 96.810547 3.5596875 96.799297 3.6796875 96.779297 L 12.509766 95.189453 C 13.169766 97.159453 14.019844 99.070393 15.089844 100.90039 L 6.640625 103.58008 C 5.510625 103.93008 4.89 105.12977 5.25 106.25977 C 5.54 107.16977 6.3792969 107.75 7.2792969 107.75 C 7.4892969 107.75 7.7099219 107.72039 7.9199219 107.65039 L 17.609375 104.57031 C 19.169375 106.49031 21.010469 108.30094 23.230469 109.96094 C 29.280469 114.47094 36.810547 117.52945 44.560547 119.18945 C 46.039488 119.50529 48.691947 120.03345 51.976562 120.48047 C 52.71003 119.06762 53.438815 117.38037 54.171875 115.51172 C 52.988839 115.30917 51.917821 114.95208 50.974609 114.43555 C 48.977177 113.34169 47.597733 111.5634 46.884766 109.48047 C 46.884766 109.48047 46.884766 109.47852 46.884766 109.47852 C 45.434627 105.2856 47.776824 99.38611 53.78125 97.927734 L 53.783203 97.927734 C 54.496388 97.755927 55.176257 97.66801 55.833984 97.626953 C 53.282699 92.828373 47.900382 88.734186 40.769531 86.693359 C 39.646835 86.946164 38.565977 87.070313 37.560547 87.070312 C 34.422771 87.070313 32.004164 86.083998 30.585938 85.316406 z "
     id="path838" />
  <path
     style="opacity:1;vector-effect:none;fill:#f0c4b1;fill-opacity:1;fill-rule:evenodd;stroke:none;stroke-width:3.77952766;stroke-linecap:round;stroke-linejoin:round;stroke-miterlimit:4;stroke-dasharray:none;stroke-dashoffset:0;stroke-opacity:1"
     d="m 15.735821,62.225524 c 0,0 -26.620036,-55.0389502 18.312285,-18.814452 0,0 -12.334819,8.894995 -18.312285,18.814452 z"
     id="path5835"
     inkscape:connector-curvature="0" />
  <path
     style="opacity:1;vector-effect:none;fill:#1a1a1a;fill-opacity:1;stroke:none;stroke-width:0.77999997;stroke-linecap:butt;stroke-linejoin:round;stroke-miterlimit:4;stroke-dasharray:none;stroke-dashoffset:0;stroke-opacity:1"
     d="M 92.166016 34.126953 C 90.838538 35.019989 89.645955 35.849361 88.759766 36.5 C 87.409766 37.49 86.169297 38.390937 85.029297 39.210938 C 80.385742 37.621626 75.401513 36.575765 70.333984 36.076172 A 12.226129 11.874596 0 0 0 69.513672 40.310547 A 12.226129 11.874596 0 0 0 81.740234 52.185547 A 12.226129 11.874596 0 0 0 93.162109 44.535156 C 91.61095 43.453933 90.570312 42.791016 90.570312 42.791016 C 91.752488 41.758466 92.866682 40.820326 93.947266 39.927734 A 12.226129 11.874596 0 0 0 92.166016 34.126953 z "
     id="path897" />
  <path
     inkscape:connector-curvature="0"
     id="path5837"
     d="m 109.28677,59.593034 c 0,0 23.20907,-53.420918 -18.716802,-16.801506 0,0 12.423912,7.747492 18.716802,16.801506 z"
     style="opacity:1;vector-effect:none;fill:#f0c4b1;fill-opacity:1;fill-rule:evenodd;stroke:none;stroke-width:3.77952766;stroke-linecap:round;stroke-linejoin:round;stroke-miterlimit:4;stroke-dasharray:none;stroke-dashoffset:0;stroke-opacity:1" />
  <path
     id="path835"
     style="fill:#f3aed7;fill-opacity:1;stroke:#f0a0af;stroke-width:1.06285203px;stroke-linecap:round;stroke-linejoin:round;stroke-opacity:1"
     d="m 68.504661,89.215772 c 0.1755,2.7814 -4.50466,6.04189 -4.50466,6.04189 0,0 -4.680168,-3.26049 -4.504661,-6.04189 0.175506,-2.78141 3.577521,-2.63502 4.504661,-1.31751 0.92714,-1.31751 4.32915,-1.4639 4.50466,1.31751 z"
     inkscape:connector-curvature="0"
     sodipodi:nodetypes="scscs" />
</svg>

<svg xmlns="http://www.w3.org/2000/svg" width="128" height="128"><path d="M125.09 92.58l-9.49-1.71c.34-1.72.55-3.48.67-5.26l8.95-1.33a2.132 2.132 0 0 0 1.8-2.42c-.17-1.17-1.25-1.95-2.42-1.8l-8.22 1.22c-.02-1-.05-2-.11-3-.23-3.35-.93-6.73-2.04-10.03 3.26-9.41 11.48-35.6 4.76-42.81-5.33-5.72-24.06 6.53-30.23 11.06-1.35.99-2.59 1.89-3.73 2.71-6.72-2.3-14.15-3.49-21.52-3.48-7.58-.01-15.25 1.23-22.12 3.67-1.38-.82-2.89-1.72-4.58-2.76-6.54-3.98-26.26-14.57-31.08-8.41-5.55 7.08 2.67 28.85 7.24 39.51-1.21 3.47-1.98 7.02-2.22 10.55-.06.95-.09 1.9-.12 2.85l-7.21-1.07c-1.16-.15-2.25.63-2.42 1.8-.17 1.17.63 2.25 1.8 2.42l7.92 1.18c.12 1.88.35 3.75.71 5.58l-8.5 1.53a2.134 2.134 0 0 0-1.72 2.48 2.129 2.129 0 0 0 2.09 1.75c.13 0 .26-.01.38-.03l8.83-1.59c.66 1.97 1.51 3.88 2.58 5.71l-8.45 2.68a2.122 2.122 0 0 0-1.39 2.68c.29.91 1.13 1.49 2.03 1.49.21 0 .43-.03.64-.1l9.69-3.08c1.56 1.92 3.4 3.73 5.62 5.39 6.05 4.51 13.58 7.57 21.33 9.23 2.95.63 10.57 2.1 18.56 2.1 7.99 0 16.35-1.47 19.3-2.1 7.75-1.66 15.28-4.71 21.33-9.23 2.31-1.73 4.23-3.62 5.82-5.65l10.5 3.34c.21.07.43.1.65.1.91 0 1.74-.58 2.03-1.49.36-1.12-.27-2.33-1.39-2.68l-9.31-2.96c1.02-1.8 1.84-3.68 2.47-5.61l9.8 1.77c.13.02.25.03.38.03 1.01 0 1.91-.72 2.1-1.75.22-1.16-.55-2.26-1.71-2.48z" fill="#ebebeb"/><path d="M81.39 96.02c-5.94 0-8.27 4.54-13.22 5.2-4.97.51-8.3-3.37-14.07-1.98-5.27 1.28-7.11 6.42-5.94 9.8 1.24 3.63 4.58 5.87 10.25 5.2 5.47-.64 5.43-3.04 10.86-3.72 5.44-.61 5.95 1.74 11.43 1.09 5.67-.67 8.4-3.63 8.76-7.45.35-3.56-2.65-8.12-8.07-8.14zM48.695 72.275a2.125 2.125 0 0 0-1.965 1.844c-.01.05-.66 4.55-5.54 6.58-4.79 1.99-8.43-.619-8.57-.719a2.133 2.133 0 0 0-2.99.41c-.72.94-.54 2.27.4 2.99.17.13 3.14 2.34 7.53 2.34 1.59 0 3.37-.29 5.26-1.08 7.11-2.96 8.09-9.67 8.14-9.95.15-1.17-.66-2.25-1.83-2.4a2.172 2.172 0 0 0-.435-.015zm28.23.079a2.135 2.135 0 0 0-2.066 2.576c.06.28 1.551 6.9 8.871 9.3 1.55.51 3 .71 4.33.71 4.94 0 8.16-2.8 8.33-2.95.88-.78.96-2.13.18-3.01-.79-.89-2.13-.96-3.01-.18-.04.04-3.49 3.03-8.5 1.38-4.93-1.62-5.98-5.96-6.03-6.16a2.136 2.136 0 0 0-2.104-1.666z" fill="#2f2f2f"/><path d="M10.738 26.348c-2.186-.011-3.953.535-5.008 1.882-5.55 7.08 2.67 28.85 7.24 39.51a42.65 42.65 0 0 0-1.622 6.088c2.14.554 4.354.931 6.623 1.113 23.689 1.903 29.223-7.05 32.511-33.277a26.53 26.53 0 0 0 .164-4.73c-3.184.601-6.296 1.415-9.255 2.466-1.38-.82-2.89-1.72-4.58-2.76-5.11-3.109-18.264-10.253-26.073-10.292zm1.492 4.72c3.823-.065 10.586 3.286 21.819 12.342 0 0-12.335 8.895-18.313 18.815 0 0-14.974-30.96-3.506-31.157z" fill="#1a1a1a"/><path d="M112.506 51.05c-1.608 4.8-3.219 8.544-3.219 8.544-2.051-2.952-4.753-5.759-7.465-8.21-11.462 2.102-10.943 7.831-16.65 21.837-.713 1.75-1.03 3.462-1.014 5.113.4.21.835.402 1.324.562 2.188.72 3.954.425 5.229-.04a7.692 7.692 0 0 0 1.482-.729c.17-.108.297-.2.377-.262l.08-.06.004-.004a.041.041 0 0 0 .01-.01h.002c1.419-1.258 3.644-1.138 4.914.293v.002c1.265 1.427 1.133 3.648-.295 4.914v.002h-.002c-.264.233-3.772 3.287-9.222 3.287-.331 0-.67-.015-1.014-.039 3.985 5.215 11.649 8.866 20.185 9.482 4.889.353 9.413-1.21 13.077-4.013l-4.71-.85c.34-1.72.55-3.48.67-5.26l8.952-1.33a2.131 2.131 0 0 0 1.799-2.42c-.17-1.17-1.25-1.948-2.42-1.798l-8.22 1.218c-.02-1-.05-2-.11-3-.23-3.35-.93-6.729-2.04-10.029 1.153-3.326 2.921-8.76 4.434-14.701a19.128 19.128 0 0 0-6.158-2.498zM30.586 85.316c-1.565.001-3.167.076-4.813.268-5.284.615-10.279 1.79-14.664 3.469.097.668.19 1.338.32 1.998l-6.99 1.258a28.528 28.528 0 0 0-3.261 2.337A2.128 2.128 0 0 0 3.68 96.78l8.83-1.59c.66 1.97 1.51 3.881 2.58 5.711l-8.45 2.68a2.122 2.122 0 0 0-1.39 2.68c.29.91 1.13 1.49 2.03 1.49.21 0 .43-.03.64-.1l9.69-3.08a31.467 31.467 0 0 0 5.62 5.39c6.05 4.51 13.58 7.57 21.33 9.23 1.48.315 4.132.843 7.417 1.29.733-1.412 1.462-3.1 2.195-4.968-1.183-.203-2.254-.56-3.197-1.076-1.998-1.094-3.377-2.873-4.09-4.956v-.001c-1.45-4.193.892-10.093 6.896-11.551h.002c.713-.172 1.393-.26 2.051-.301-2.551-4.799-7.934-8.893-15.064-10.934a14.686 14.686 0 0 1-3.21.377 14.69 14.69 0 0 1-6.974-1.754z" fill="#1a1a1a" stroke-width=".78" stroke-linejoin="round"/><path d="M15.736 62.226s-26.62-55.04 18.312-18.815c0 0-12.335 8.895-18.312 18.815z" fill="#f0c4b1" fill-rule="evenodd" stroke-width="3.78" stroke-linecap="round" stroke-linejoin="round"/><path d="M92.166 34.127c-1.327.893-2.52 1.722-3.406 2.373-1.35.99-2.59 1.89-3.73 2.71-4.644-1.588-9.628-2.634-14.696-3.134a12.226 11.875 0 0 0-.82 4.235A12.226 11.875 0 0 0 81.74 52.186a12.226 11.875 0 0 0 11.422-7.65 83.307 83.307 0 0 0-2.592-1.745 159.053 159.053 0 0 1 3.377-2.863 12.226 11.875 0 0 0-1.781-5.801z" fill="#1a1a1a" stroke-width=".78" stroke-linejoin="round"/><path d="M109.287 59.593s23.209-53.42-18.717-16.801c0 0 12.424 7.747 18.717 16.801z" fill="#f0c4b1" fill-rule="evenodd" stroke-width="3.78" stroke-linecap="round" stroke-linejoin="round"/><path d="M68.505 89.216C68.68 91.997 64 95.258 64 95.258s-4.68-3.26-4.505-6.042c.176-2.782 3.578-2.635 4.505-1.318.927-1.317 4.33-1.464 4.505 1.318z" fill="#f3aed7" stroke="#f0a0af" stroke-width="1.063" stroke-linecap="round" stroke-linejoin="round"/></svg>
